X: 65
T: Jing jiu ge
%%abc-version 2.0
%%abcx-abcm2ps-target-version 5.9.1 (29 Sep 2008)
%%abc-creator hum2abc beta
%%abcx-conversion-date 2013/10/02 07:44:27
%%abc-edited-by Helmut Schaffrath
%%humdrum-veritas 2343246609
%%humdrum-veritas-data 3646898147
%%continueall 1
%%barnumbers 0
L: 1/16
M: 2/4
K: F
c c2 d G G2 A [I:setbarnb 1]| 
c c2 f d c G A | 
c2> d2c4 | 
d d2 g G G2 A | 
c d g2 d c A2 | 
A G2 AG4 | 
c2 A G F2 F D | 
F2> f2 d c2 A | 
A G2 A G2 C2 | 
c2 A G F G c2 | 
A G G F D F A2 | 
C8 |]  



